packages/web/public/images/icon/telegram.svg

<svg width="24" height="24" viewBox="0 0 24 24" fill="none" xmlns="http://www.w3.org/2000/svg">
<path d="M12 23C18.0751 23 23 18.0751 23 12C23 5.92487 18.0751 1 12 1C5.92487 1 1 5.92487 1 12C1 18.0751 5.92487 23 12 23Z" fill="#EDEFEE" stroke="black" stroke-width="2"/>
<path fill-rule="evenodd" clip-rule="evenodd" d="M6.52635 11.8945C9.44156 10.6243 11.3855 9.78702 12.3581 9.38246C15.1352 8.22737 15.7123 8.02672 16.0884 8.02009C16.1711 8.01863 16.3561 8.03913 16.4759 8.13635C16.5771 8.21844 16.6049 8.32933 16.6182 8.40716C16.6316 8.485 16.6481 8.66229 16.635 8.80083C16.4845 10.3821 15.8333 14.2193 15.502 15.9903C15.3618 16.7397 15.0858 16.9909 14.8186 17.0155C14.2379 17.069 13.7969 16.6318 13.2345 16.2631C12.3543 15.6861 11.8571 15.327 11.0028 14.764C10.0155 14.1134 10.6555 13.7558 11.2182 13.1714C11.3654 13.0184 13.9241 10.6911 13.9736 10.48C13.9798 10.4536 13.9856 10.3552 13.9271 10.3032C13.8686 10.2513 13.7823 10.269 13.72 10.2832C13.6318 10.3032 12.2257 11.2325 9.50198 13.0711C9.10288 13.3452 8.7414 13.4787 8.41752 13.4717C8.06046 13.464 7.37364 13.2698 6.86306 13.1039C6.23681 12.9003 5.73907 12.7927 5.78242 12.4469C5.80499 12.2669 6.05297 12.0827 6.52635 11.8945Z" fill="black"/>
</svg>

<svg width="24" height="24" fill="none"
  xmlns="http://www.w3.org/2000/svg">
  <path d="M12 23c6.075 0 11-4.925 11-11S18.075 1 12 1 1 5.925 1 12s4.925 11 11 11Z" fill="#EDEFEE" stroke="#000" stroke-width="2"/>
  <path fill-rule="evenodd" clip-rule="evenodd" d="M6.526 11.895c2.916-1.27 4.86-2.108 5.832-2.513 2.777-1.155 3.354-1.355 3.73-1.362.083-.001.268.02.388.116a.422.422 0 0 1 .142.271c.014.078.03.255.017.394-.15 1.581-.802 5.418-1.133 7.19-.14.749-.416 1-.683 1.024-.581.054-1.022-.383-1.584-.752-.88-.577-1.378-.936-2.232-1.499-.987-.65-.347-1.008.215-1.593.148-.153 2.706-2.48 2.756-2.691.006-.026.012-.125-.047-.177-.058-.052-.145-.034-.207-.02-.088.02-1.494.95-4.218 2.788-.399.274-.76.408-1.084.4-.357-.007-1.044-.201-1.555-.367-.626-.204-1.124-.311-1.08-.657.022-.18.27-.364.743-.552Z" fill="#000"/>
</svg>
